X:1
T:Çekemedim AKça Kızın Göçünü
T:Çekemedim Akça Kızın Göçünü
T:Notasyon: Musa Çetiner
T:www.gitaregitim.net
Z:Notasyon: Musa Çetiner
Z:www.gitaregitim.net
%%score { 1 | 2 }
L:1/8
Q:1/4=52
M:4/4
K:C
V:1 treble-8 nm="Klasik Gitar" snm="Git."
V:2 tab stafflines=6 strings=E2,A2,D3,G3,B3,E4 
V:1
"G" B>A A>G GG/G/ B/c/d |"G" B>A A>G G>G G/G/G :|"G" g>g"D" a/g/a/^f/"G" g>g g/f/g | %3
w: |||
"G" g>g"D" a/g/a/^f/"G" g>g g/f/g |:"G" z g/g/ g<g- g/gg/ g<g |"G" g/g/g- g>a"D" a>^f fe/d/ | %6
w: |Çe ke me dim _ ak ça kı zın|gö çü nü _ _ _ _ _ _ _|
"G" g/^f/e/f/"D" g/g/a/f/"G" g3 z |"G" ^f/gg/"D" a/g/a/f/"G" g>g g/f/g | %8
w: of _ _ _ gö çü _ _ nü|(saz) _ _ _ _ _ _ _ _ _ _ _|
"G" ^f/gg/"D" a/g/a/f/"G" g>g g/f/g |"G" z ^f/g/ gg/e/"C" e/e/ z g/=f/e/d/ | %10
w: _ _ _ _ _ _ _ _ _ _ _ _|Sır ma saç la rı bı rak döğ _ sün _|
"G" d/dB/ c/B/A/G/ B/B/B- B>A |"G" B/B/A"D" A/AG/"G" G3 z :| %12
w: dö şü _ nü _ _ _ Dö şü nü _ _|a kız _ dö şü _ nü|
V:2
 !2!B,>!3!A, !3!A,>!3!G, !3!G,!3!G,/!3!G,/ !2!B,/!2!C/!2!D | %1
 !2!B,>!3!A, !3!A,>!3!G, !3!G,>!3!G, !3!G,/!3!G,/!3!G, :| %2
 !1!G>!1!G !1!A/!1!G/!1!A/!1!^F/ !1!G>!1!G !1!G/!1!F/!1!G | %3
 !1!G>!1!G !1!A/!1!G/!1!A/!1!^F/ !1!G>!1!G !1!G/!1!F/!1!G |: %4
 x !1!G/!1!G/ !1!G<!1!G- !1!G/!1!G!1!G/ !1!G<!1!G | %5
 !1!G/!1!G/!1!G- !1!G>!1!A !1!A>!1!^F !1!F!1!E/!2!D/ | %6
 !1!G/!1!^F/!1!E/!1!F/ !1!G/!1!G/!1!A/!1!F/ !1!G3 x | %7
 !1!^F/!1!G!1!G/ !1!A/!1!G/!1!A/!1!^F/ !1!G>!1!G !1!G/!1!F/!1!G | %8
 !1!^F/!1!G!1!G/ !1!A/!1!G/!1!A/!1!F/ !1!G>!1!G !1!G/!1!F/!1!G | %9
 x !1!^F/!1!G/ !1!G!1!G/!1!E/ !1!E/!1!E/ x !1!G/!1!=F/!1!E/!2!D/ | %10
 !2!D/!2!D!2!B,/ !2!C/!2!B,/!3!A,/!3!G,/ !2!B,/!2!B,/!2!B,- !2!B,>!3!A, | %11
 !2!B,/!2!B,/!3!A, !3!A,/!3!A,!3!G,/ !3!G,3 x :| %12

